X: 41248
T: Trupenny
R: reel
M: 4/4
K: Dminor
DAAG AAFA|AEAA GECE|DA (3AAA GAFG|EDCE AGFE|
DAAG AAFA|AEAA GECE|EF (3FFF FEDC|A,CDE FAEA:|
(3ddd fd egde|fdeg defd|(3ddd fd ed=ce|dcAG FAEA|
DAAE AAFA|AEAA FAGB|AGFA GFEG|FD3 D4:|

